X:282
T:score80
L:1/8
Q:1/4=96
M:2/2
I:linebreak $
K:Gmin
 z4 z2 (ed | d2 ed d2 ed | d2 b2) z2 (ba |$ g2 gf e2 ed | .c2) .c2 z2 (dc | c2 dc c2 dc |$ %6
 c2 a2) z2 (ag | ^f2 fe d2 dc | .B2) .B2 z2 z2 |] %9
